symbols/web/phone_forwarded/materialsymbolsoutlined/phone_forwarded_wght600grad200_24px.svg

<svg xmlns="http://www.w3.org/2000/svg" height="24" width="24"><path d="m18.3 10.55-2.075-1.975L17.55 7.25H12.9V4.4h4.65l-1.3-1.325 2.05-2L23 5.85Zm2.175 11.4q-3.575 0-6.9-1.537-3.325-1.538-5.9-4.113t-4.113-5.913Q2.025 7.05 2.025 3.475q0-.675.413-1.1.412-.425 1.087-.425h4.65q.675 0 1.137.362.463.363.588.988l.7 3.675q.1.575-.012 1-.113.425-.463.75l-2.65 2.5q.85 1.4 2.2 2.763 1.35 1.362 2.775 2.287l2.725-2.6q.375-.35.8-.475.425-.125.925 0l3.725.825q.65.15 1 .575.35.425.35 1.05v4.8q0 .675-.413 1.088-.412.412-1.087.412ZM6 8.4l1.5-1.375-.375-2H5.15q.1.925.288 1.725.187.8.562 1.65Zm12.9 10.375v.013-2.013l-2.05-.45-1.525 1.5q.875.4 1.775.613.9.212 1.8.337Zm-3.575-.95ZM6 8.4Z"/></svg>

<svg xmlns="http://www.w3.org/2000/svg" height="24" width="24"><path d="M18.3 10.55 16.225 8.575 17.55 7.25H12.9V4.4H17.55L16.25 3.075L18.3 1.075L23 5.85ZM20.475 21.95Q16.9 21.95 13.575 20.413Q10.25 18.875 7.675 16.3Q5.1 13.725 3.562 10.387Q2.025 7.05 2.025 3.475Q2.025 2.8 2.438 2.375Q2.85 1.95 3.525 1.95H8.175Q8.85 1.95 9.312 2.312Q9.775 2.675 9.9 3.3L10.6 6.975Q10.7 7.55 10.588 7.975Q10.475 8.4 10.125 8.725L7.475 11.225Q8.325 12.625 9.675 13.988Q11.025 15.35 12.45 16.275L15.175 13.675Q15.55 13.325 15.975 13.2Q16.4 13.075 16.9 13.2L20.625 14.025Q21.275 14.175 21.625 14.6Q21.975 15.025 21.975 15.65V20.45Q21.975 21.125 21.562 21.538Q21.15 21.95 20.475 21.95ZM6 8.4 7.5 7.025Q7.5 7.025 7.5 7.025Q7.5 7.025 7.5 7.025L7.125 5.025Q7.125 5.025 7.125 5.025Q7.125 5.025 7.125 5.025H5.15Q5.15 5.025 5.15 5.025Q5.15 5.025 5.15 5.025Q5.25 5.95 5.438 6.75Q5.625 7.55 6 8.4ZM18.9 18.775Q18.9 18.8 18.9 18.788Q18.9 18.775 18.9 18.775V16.775Q18.9 16.775 18.9 16.775Q18.9 16.775 18.9 16.775L16.85 16.325Q16.85 16.325 16.85 16.325Q16.85 16.325 16.85 16.325L15.325 17.825Q16.2 18.225 17.1 18.438Q18 18.65 18.9 18.775ZM15.325 17.825Q15.325 17.825 15.325 17.825Q15.325 17.825 15.325 17.825Q15.325 17.825 15.325 17.825Q15.325 17.825 15.325 17.825Q15.325 17.825 15.325 17.825Q15.325 17.825 15.325 17.825Q15.325 17.825 15.325 17.825Q15.325 17.825 15.325 17.825ZM6 8.4Q6 8.4 6 8.4Q6 8.4 6 8.4Q6 8.4 6 8.4Q6 8.4 6 8.4Q6 8.4 6 8.4Q6 8.4 6 8.4Q6 8.4 6 8.4Q6 8.4 6 8.4Z"/></svg>
